X:964
T:Reel 964
M:4/4
K:Emin
L:1/8
BA|GEFD B,A,B,>D|EDED CB,A,2|CEEF GABA|GEFD E2:|GF|GEBE dEBE| (3DFD  (3DDD FDAF|G>E (3EEE BABA| (3FGF ED E2:|
